X: 2031
T: Stones in the Street
R: reel
C: Rick Gagne
N: 1988 on tenor banjo
Q: 1/4=175
M: 4/4
K: Ador
=FA |"Am"EA~A2 EA~A2|EAFA "G"G2FG|"Am"EA~A2 EA~A2 |"C"cecc "G"BAGA| 
"Am"EA~A2 EA~A2 |EAFA "G"G2FG|"C"Ec~c2 "G"BAG2|"D"AcBG "Am"A2 :|
cd |"C"edce "G"dcBd |"Am"cBAc "Em"BE~E2 |GB~B2 dcBd |"C"cBAc "G"B2cB| 
"Am"Aceg agec|"D"dcBA "Em"GE~E2 |"G"GBdB "D"cedB|"Am"cBAG "D"A2 :|
